svgs/localsend.svg

<svg xmlns="http://www.w3.org/2000/svg" viewBox="0 0 192 192"><path fill="none" stroke="#000" stroke-width="8" d="M88.72 175.788c-3.59-.348-13.882-2.254-14.613-2.706-1.058-.654 1.227-5.203 3.475-6.918 3.327-2.537 3.727-2.591 18.811-2.522 13.229.06 13.855.098 15.48.945.932.485 2.265 1.363 2.963 1.95 1.413 1.189 3.576 5.244 3.25 6.094-.225.585-6.363 2.085-11.255 2.75-4.449.605-13.884.817-18.111.407Zm-34.919-11.721c-7.978-5-14.605-10.85-20.109-17.749-4.092-5.13-7.843-11.038-7.529-11.858.374-.973 4.618-2.004 7.263-1.764 3.415.309 6.076 1.843 8.88 5.118 3.89 4.543 6.318 6.996 10.577 10.688 5.201 4.509 6.252 6.365 6.251 11.039 0 2.409-.219 3.77-.815 5.07l-.815 1.777Zm79.725.31c-.451-1.016-.687-2.668-.691-4.836-.008-4.673 1.041-6.527 6.246-11.039 4.259-3.692 6.686-6.145 10.576-10.688 3.316-3.872 5.56-5.006 9.905-5.005 2.408 0 3.77.219 5.07.815l1.777.814-2.322 3.704c-4.717 7.527-10.112 13.782-16.459 19.08-3.95 3.298-11.934 8.698-12.859 8.698-.307 0-.866-.694-1.243-1.543Zm-42.688-25.655c-10.872-1.294-21.409-7.106-28.288-15.603-3.227-3.987-6.826-10.935-8.097-15.635C51.65 97.12 52.69 86.57 57.474 76.825c4.21-8.575 10.752-15.108 19.357-19.33 9.884-4.849 19.727-5.853 30.468-3.106 7.978 2.04 16.7 7.725 22.114 14.414 3.228 3.987 6.826 10.935 8.097 15.635 2.803 10.364 1.764 20.914-3.021 30.659-4.21 8.575-10.752 15.108-19.357 19.33-8.164 4.005-15.63 5.325-24.294 4.295Zm-71.922-20.814c-.384-.654-1.904-7.772-2.403-11.247-.644-4.491-.66-16.992-.026-20.988 1.066-6.721 2.25-11.595 2.875-11.835.87-.334 4.822 1.816 6.074 3.304.57.678 1.435 1.996 1.92 2.927.847 1.626.885 2.251.945 15.48.069 15.074.013 15.487-2.51 18.796-1.589 2.083-6.309 4.529-6.875 3.563Zm150.446-.948c-2.382-1.376-3.842-3.071-4.991-5.795-.706-1.675-.767-2.991-.718-15.616l.054-13.786 1.206-2.204c.663-1.212 1.858-2.741 2.655-3.398 1.743-1.437 4.851-2.703 5.343-2.177.464.498 1.916 6.939 2.541 11.277.846 5.865.646 17.459-.403 23.457-1.33 7.607-1.81 9.24-2.755 9.367-.438.059-1.758-.447-2.932-1.125ZM28.682 58.784c-3.378-1.108-3.351-.934-.789-5.027 4.971-7.941 10.836-14.585 17.731-20.086 5.13-4.092 11.039-7.843 11.858-7.529.974.374 2.005 4.619 1.765 7.263-.341 3.765-1.798 6.056-6.364 10.015-4.259 3.692-6.687 6.145-10.577 10.688-2.997 3.5-5.519 4.879-9.287 5.08-1.515.08-3.396-.095-4.337-.404Zm127.794.166c-2.775-.847-4.662-2.291-7.955-6.091-3.691-4.256-6.144-6.684-10.686-10.573-3.872-3.316-5.006-5.56-5.006-9.906.001-2.408.219-3.769.815-5.069l.815-1.777 3.704 2.321c7.977 5 14.605 10.849 20.108 17.749 4.078 5.112 7.844 11.038 7.531 11.852-.514 1.34-6.625 2.319-9.326 1.494ZM79.835 27.12c-1.298-.647-2.92-1.855-3.604-2.685-1.478-1.794-2.76-4.905-2.226-5.403.499-.466 6.949-1.919 11.277-2.539 4.491-.645 16.992-.66 20.988-.027 6.72 1.066 11.595 2.25 11.835 2.875.334.87-1.816 4.822-3.304 6.074-.678.571-1.996 1.434-2.928 1.919-1.629.847-2.231.882-15.685.921l-13.992.041Z"/></svg>

<svg
    xmlns="http://www.w3.org/2000/svg"
    viewBox="0 0 192 192"
    id="vector">
    <path
        id="path"
        d="M 88.72 175.788 C 85.13 175.44 74.838 173.534 74.107 173.082 C 73.049 172.428 75.334 167.879 77.582 166.164 C 80.909 163.627 81.309 163.573 96.393 163.642 C 109.622 163.702 110.248 163.74 111.873 164.587 C 112.805 165.072 114.138 165.95 114.836 166.537 C 116.249 167.726 118.412 171.781 118.086 172.631 C 117.861 173.216 111.723 174.716 106.831 175.381 C 102.382 175.986 92.947 176.198 88.72 175.788 Z M 53.801 164.067 C 45.823 159.067 39.196 153.217 33.692 146.318 C 29.6 141.188 25.849 135.28 26.163 134.46 C 26.537 133.487 30.781 132.456 33.426 132.696 C 36.841 133.005 39.502 134.539 42.306 137.814 C 46.196 142.357 48.624 144.81 52.883 148.502 C 58.084 153.011 59.135 154.867 59.134 159.541 C 59.134 161.95 58.915 163.311 58.319 164.611 L 57.504 166.388 Z M 133.526 164.377 C 133.075 163.361 132.839 161.709 132.835 159.541 C 132.827 154.868 133.876 153.014 139.081 148.502 C 143.34 144.81 145.767 142.357 149.657 137.814 C 152.973 133.942 155.217 132.808 159.562 132.809 C 161.97 132.809 163.332 133.028 164.632 133.624 L 166.409 134.438 L 164.087 138.142 C 159.37 145.669 153.975 151.924 147.628 157.222 C 143.678 160.52 135.694 165.92 134.769 165.92 C 134.462 165.92 133.903 165.226 133.526 164.377 Z M 90.838 138.722 C 79.966 137.428 69.429 131.616 62.55 123.119 C 59.323 119.132 55.724 112.184 54.453 107.484 C 51.65 97.12 52.69 86.57 57.474 76.825 C 61.684 68.25 68.226 61.717 76.831 57.495 C 86.715 52.646 96.558 51.642 107.299 54.389 C 115.277 56.429 123.999 62.114 129.413 68.803 C 132.641 72.79 136.239 79.738 137.51 84.438 C 140.313 94.802 139.274 105.352 134.489 115.097 C 130.279 123.672 123.737 130.205 115.132 134.427 C 106.968 138.432 99.502 139.752 90.838 138.722 Z M 18.916 117.908 C 18.532 117.254 17.012 110.136 16.513 106.661 C 15.869 102.17 15.853 89.669 16.487 85.673 C 17.553 78.952 18.737 74.078 19.362 73.838 C 20.232 73.504 24.184 75.654 25.436 77.142 C 26.006 77.82 26.871 79.138 27.356 80.069 C 28.203 81.695 28.241 82.32 28.301 95.549 C 28.37 110.623 28.314 111.036 25.791 114.345 C 24.202 116.428 19.482 118.874 18.916 117.908 Z M 169.362 116.96 C 166.98 115.584 165.52 113.889 164.371 111.165 C 163.665 109.49 163.604 108.174 163.653 95.549 L 163.707 81.763 L 164.913 79.559 C 165.576 78.347 166.771 76.818 167.568 76.161 C 169.311 74.724 172.419 73.458 172.911 73.984 C 173.375 74.482 174.827 80.923 175.452 85.261 C 176.298 91.126 176.098 102.72 175.049 108.718 C 173.719 116.325 173.239 117.958 172.294 118.085 C 171.856 118.144 170.536 117.638 169.362 116.96 Z M 28.682 58.784 C 25.304 57.676 25.331 57.85 27.893 53.757 C 32.864 45.816 38.729 39.172 45.624 33.671 C 50.754 29.579 56.663 25.828 57.482 26.142 C 58.456 26.516 59.487 30.761 59.247 33.405 C 58.906 37.17 57.449 39.461 52.883 43.42 C 48.624 47.112 46.196 49.565 42.306 54.108 C 39.309 57.608 36.787 58.987 33.019 59.188 C 31.504 59.268 29.623 59.093 28.682 58.784 Z M 156.476 58.95 C 153.701 58.103 151.814 56.659 148.521 52.859 C 144.83 48.603 142.377 46.175 137.835 42.286 C 133.963 38.97 132.829 36.726 132.829 32.38 C 132.83 29.972 133.048 28.611 133.644 27.311 L 134.459 25.534 L 138.163 27.855 C 146.14 32.855 152.768 38.704 158.271 45.604 C 162.349 50.716 166.115 56.642 165.802 57.456 C 165.288 58.796 159.177 59.775 156.476 58.95 Z M 79.835 27.12 C 78.537 26.473 76.915 25.265 76.231 24.435 C 74.753 22.641 73.471 19.53 74.005 19.032 C 74.504 18.566 80.954 17.113 85.282 16.493 C 89.773 15.848 102.274 15.833 106.27 16.466 C 112.99 17.532 117.865 18.716 118.105 19.341 C 118.439 20.211 116.289 24.163 114.801 25.415 C 114.123 25.986 112.805 26.849 111.873 27.334 C 110.244 28.181 109.642 28.216 96.188 28.255 L 82.196 28.296 Z"
        fill="none"
        stroke="#000000"
        stroke-width="8"/>
</svg>
